X:848
T:Reel du Semeur
C:Traditional Quebecois
S:Colin Hume's website,  colinhume.com  - chords can also be printed below the stave.
N:For the dance "Christmas Course Quadrille" by Philippe Callens
Q:1/2=112
M:2/2
L:1/8
R:Polka
K:D
|: FG | "D"ABAG F2A2 | f4 d4 | ABAG F2A2 | f4 d2f2 |\
"Em"e3f g2fe | "D"d2de fafd | "A7"c2cd egec | "D"d4 d2 :|
|: fg | "Em"a2g2 "A7"e2ce | "D"g2f2 "Bm"d3e | "Em"f2e2 "A7"B2c2 | "D"dcde fefg |\
"Em"a2g2 "A7"e2ce | "D"g2f2 "Bm"d3c | "Em"B2g2 "A7"e2c2 | "D"d4 d2 :|

